X: 91
T:The Laurel Groves
M:4/4
L:1/8
S:John Kelly, Clare (fiddle) (?)
R:Reel
D:Fiddle concert - Milltown Malbay 1983
Z:Bernie Stocks
K:D
B2AG FDDE | FDAD BDAD | B2AG FDDF | ED=CD EFGE :| d3f a3f | g2fg eBB2 |\
d3f a3f | g2fg egfe | d3f a3f | g2fg eBB2 | B3A Bcde | f2eg fdd2 ||
<end>
<start>
